X: 40270
T: Toast
R: jig
M: 6/8
K: Eminor
Bed efg|fdB AGA|Bed efg|fed agf|
Bed efg|fdB AGA|bee aee|^def e3:|
|:gdd gab|afd fef|gdd gab|afd ^def|
gcc gab|afd fef|bee aee|^def e3:|
M:9/8
|:B,ED EFG FED|B,ED EFG FED|CED EFG FED|DFD AGF EFG|
B,ED EFG FED|B,ED EFG FED|[M:6/8] B,EE CEE|^DEF E3:|

